src/images/icons/twitter.svg

<svg xmlns="http://www.w3.org/2000/svg" width="25" height="24" fill="none" viewBox="0 0 25 24"><g clip-path="url(#clip0)"><path fill="#8E859A" d="M7.9975 21.6102C16.9943 21.6102 21.9143 14.1625 21.9143 7.7042C21.9143 7.49266 21.91 7.28207 21.9005 7.07245C22.8555 6.38257 23.6856 5.52166 24.3403 4.54162C23.4639 4.93087 22.5208 5.1929 21.5314 5.31106C22.5413 4.70599 23.3166 3.74883 23.6823 2.6078C22.7373 3.16761 21.6907 3.57449 20.5764 3.79416C19.6839 2.84418 18.4131 2.25 17.0061 2.25C14.305 2.25 12.1146 4.43878 12.1146 7.13676C12.1146 7.52028 12.1575 7.89333 12.2414 8.25117C8.1762 8.04677 4.57148 6.10196 2.159 3.14474C1.73894 3.86701 1.49672 4.70601 1.49672 5.60123C1.49672 7.29687 2.36024 8.79379 3.67336 9.66951C2.87088 9.64473 2.11704 9.42461 1.45816 9.05823C1.45744 9.07874 1.45744 9.09874 1.45744 9.12065C1.45744 11.4876 3.14344 13.4638 5.38152 13.9116C4.97052 14.0236 4.53808 14.0836 4.09176 14.0836C3.77707 14.0836 3.47048 14.0527 3.17248 13.9955C3.79518 15.9374 5.60088 17.3506 7.74168 17.3901C6.0676 18.7012 3.95872 19.4821 1.66672 19.4821C1.2724 19.4821 0.882856 19.4597 0.5 19.4144C2.66472 20.8009 5.23512 21.6099 7.99776 21.6099"/></g><defs><clipPath id="clip0"><rect width="24" height="24" fill="#fff" transform="translate(0.5)"/></clipPath></defs></svg>

<svg fill="none" viewBox="0 0 25 24"><g clip-path="url(#clip0)"><path fill="#8E859A" d="M7.997 21.61c8.997 0 13.917-7.447 13.917-13.906 0-.211-.004-.422-.014-.632a9.943 9.943 0 002.44-2.53 9.76 9.76 0 01-2.809.77 4.905 4.905 0 002.151-2.704 9.814 9.814 0 01-3.106 1.186 4.887 4.887 0 00-3.57-1.544 4.89 4.89 0 00-4.765 6.001A13.892 13.892 0 012.16 3.145 4.872 4.872 0 001.497 5.6c0 1.696.863 3.193 2.176 4.069a4.858 4.858 0 01-2.215-.612v.063a4.89 4.89 0 003.924 4.79 4.9 4.9 0 01-2.21.085 4.896 4.896 0 004.57 3.394 9.817 9.817 0 01-6.075 2.092A9.93 9.93 0 01.5 19.414a13.853 13.853 0 007.498 2.196"/></g><defs><clipPath id="clip0"><path fill="#fff" d="M0 0h24v24H0z" transform="translate(.5)"/></clipPath></defs></svg>
